X: 1402
T: Mâhur Peşrev
C: Tanburî Cemil Bey
O: Turkey
F: http://compmusic.upf.edu/node/140
N: mahur--pesrev--muhammes----tanburi_cemil_bey
N: makam= mahur
N: form= pesrev
N: usul= muhammes = 32/4
M: 32/4
L: 1/16
K: C ^9/8f   
Q: 1/4=78
%%MIDI tuningsystem comma53
f6 (3bag g8  | g4 a2 b2 a4 g4  | a g f e f2 g2 f2 {a}g f e4  | \
w:  1. HANE  |   |   | 
z2 g2 f2 e2 a4 g2 f2  | 
w:   | 
e f g4 =f e e3 d ^9/8f e d ^c  | d4 e2 f2 g2 a2 g2 b2  | \
w:   |   | 
a3 g f2 g2 f2 g2 a2 {b}a g  | 
w:   | 
g6 g f f e e f g4  | d2 g4 c'2 b3 ^a g =a b c'  | \
w:   |   | 
^a2 b4 a g {a}g3 f e4  | 
w:   | 
b3 a c'2 b a a3 g b2 a g  | g3 f a2 g f f e d2 e2 f2  | \
w:   |   | 
a2 g4 g =f f3 e e3 d  | 
w:   | 
d3 c =f e d c B4 g4  | z2 f4 d2 e3 d =f e d ^c  | \
w:   |   | 
d6 e f g f e f g4  | 
w:   | 
d4 g4 g a g f e f g a  | f2 g4 f e f3 e a3 g  | \
w:  TESLİM  |   | 
g3 f f3 e a g f e d4  | 
w:   | 
e3 f g2 a2 .f2 .g2 .e2 .=f2  | e3 d .^c2 .e2 d8  | \
w:   |   | 
d4 g4 g a g f e f g a  | 
w:   | 
f2 g4 =f e d3 c B2 {d}c2  | A4 B2 c2 d2 {f}=f2 e2 d2  | \
w:   |   | 
d2 c4 B2 B2 A2 d c B A  | 
w:   | 
G4 e =f e d c2 d4 e2  | d2 c B A2 B2 d2 c6  | \
w:   |   | 
c4 c d c B B4 B c B A  | 
w:   | 
d c B A G2 B2 A6 e2  | d2 c2 B2 A2 G2 F2 E2 B2  | \
w:   |   | 
A3 G F2 G2 F2 G2 A2 {B}A G  | 
w:   | 
G6 z2 z8  | d4 g4 g a g f e f g a  | \
w:   |  TESLİM  | 
f2 g4 f e f3 e a3 g  | 
w:   | 
g3 f f3 e a g f e d4  | e3 f g2 a2 .f2 .g2 .e2 .=f2  | \
w:   |   | 
e3 d .^c2 .e2 d8  | 
w:   | 
d4 g4 g a g f e f g a  | f2 g4 =f e d3 c B2 {d}c2  | \
w:   |   | 
A4 B2 c2 d2 {f}=f2 e2 d2  | 
w:   | 
d2 c4 B2 B2 A2 d c B A  | G4 e =f e d c2 d4 e2  | \
w:   |   | 
d2 c B A2 B2 d2 c6  | 
w:   | 
c4 c d c B B4 B c B A  | d c B A G2 B2 A6 e2  | \
w:   |   | 
d2 c2 B2 A2 G2 F2 E2 B2  | 
w:   | 
A3 G F2 G2 F2 G2 A2 {B}A G  | G6 z2 z8  | |


